!!!COM: Ernest Chausson
!!!CNT: Francais
!!!TXO: Francais
!!!OTL: "Ballade"
!!!LYR: Mauclair
!!!OPR: Trois lieder
!!!OPS: Op. 27
!!!ONM: No. 2
!!!ENC: Emily Thomas
!!!YOR: CD Sheet Music French Art Songs, The Ultimate Collection
!!!YOR: CD Sheet Music, LLC 2003
!!!ODT: 1896/
!!NB: Vocal melody and text encoded.
**kern	**silbe
=1	=1
*clefG2	*
*k[f#c#g#]	*
*M6/4	*
*MM[Calme]	*
2.r	.
4r	.
{4a	{Quand
4a	les
=2	=2
2a	an-
4e	-ges
4fn	se
4fn	sont
4fn	per-
=3	=3
2.e	-dus
4a	Qui
4a	s'en
4a	ve-
=4	=4
4g#	-naient
4f#	sur
4e	la
2.f#}	mer}
=5	=5
4r	.
{4g#	{Les
4g#	oi-
2cc#	-seaux
4cc#	les
=6	=6
4cc#	ont
4b	at-
4a	-ten-
[2.b	-dus
=7	=7
2.b_	|
4b]	|
4b	En
4b	cri-
=8	=8
4.gn	-ant
8gn	e/-
4gn	=per-
2.f#}	-dus}
=9	=9
4r	.
{4e	{Dans
4e	le
2f#	vent
4gn	a-
=10	=10
1.gn}	-,er.}
=11	=11
2.r	.
{4a#	{Quand
4a#	les
4a#	vais-
=12	=12
2b	-seaux
4b	se
2an	sont
4gn	per-
=13	=13
2.gn	-dus
4f#	Qui
4f#	s'en
4f#	ve-
=14	=14
4e	-naient
4f#	sur
4gn	la
[2.f#	mer,
=15	=15
2.f#]}	|}
4r	.
{4f#	{Les
4f#	oi-
=16	=16
2gn	-seaux
4gn	les
4a	ont
4a	at-
4a	-ten-
=17	=17
[1.b	-dus,
=18	=18
2.b]}	|}
{2.ccn	{Puis,
=19	=19
4ccn	s'en
4b-	sont
4a	al-
4a	-le/s
4gn	dans
4fn	le
=20	=20
2e	vent
4a	a-
[2.a	-mer
=21	=21
1.a]}	|}
=22	=22
2.r	.
{4a	{S'en
4a	sont
4a	al-
=23	=23
2ccn	-le/s
[4a	jus-
4a]	|
4gn	-qu'aux
4fn	chau-
=24	=24
2gn	-mie\-
4gn}	-res}
4r	.
{2a	{Qui
=25	=25
4.b	dor-
8a	-ment
4gn	au
4fn	bord
4e-	de
4gn	la
=26	=26
1.f#}	mer;}
=27	=27
4r	.
8r	.
{4.a	{Et
4.g#	ils
4.f#	ont
=28	=28
2f#	dit
4f#	qu'e/ta\-
2cc#	-ient
4cc#	per-
=29	=29
[2.ccn	-dus
2ccn]}	|}
{4gn	{Les
=30	=30
2gn	an-
[4gn	-ges
4gn]	|
4gn	at-
4a	-ten-
=31	=31
2.a}	-dus.}
2.r	.
=32	=32
2.r	.
{4f#	{S'en
4f#	sont
4f#	al-
=33	=33
4.a	-le/s
8a	aux
4a	clo-
4b	-chers
4b	des
4b	e/-
=34	=34
2cc#	-gli-
4a#}	-ses}
4r	.
{2b#	{Qui
=35	=35
2cc#	chan-
4a#	-tent
4a#	se-
4g#	-lon
4f#	la
=36	=36
2e#	bri-
[4e#	-se,
4e#]}	|}
4r	.
4r	.
=37	=37
4r	.
8r	.
{4.ccn	{Et
4.b	ils
4.a	ont
=38	=38
2a	dit
4a	qu'e/ta-
2ee	-ient
4ee	per-
=39	=39
[2.ee-	-dus
4ee-]}	|}
{4b-	{Les
4b-	vai-
=40	=40
2.b-	-seaux
2b-	at-
4b-	-ten-
=41	=41
1.a}	-dus.}
=42	=42
2.r	.
4r	.
{4a	{Et
4a	la
=43	=43
2a	nuit
8e	les
8e	en-
2fn	-fants
4fn	e/-
=44	=44
2e	-tran-
4e	-ges
4a	Ont
4a	vu
4a	les
=45	=45
4g#	ai-
4f#	-les
4e	des
2f#	an-
4f#}	-ges}
=46	=46
8r	.
{[8g#	{Com-
8g#]	|
8g#	-me
8g#	des
8g#	vai-
2cc#	-sseaux
4cc#	flot-
=47	=47
2cc#	-ter
4g#	au
[2.b	ciel,
=48	=48
1.b]}	|}
=49	=49
{4gn	{Ont
4.gn	vu
8gn	des
2f#	voi-
4f#	-les
=50	=50
4b	com-
4a	-me
4gn	des
2f#	ai-
4g#	|
=51	=51
2.gn}	-les}
4r	.
{2b-	{Pla-
=52	=52
2.a	-ner
4fn	vers
4fn	les
4fn	e/-
=53	=53
2e	-toi-
4e}	-les.}
2.r	.
=54	=54
4r	.
{4e	{Et
4e	me^-
2fn	-lant
4fn	les
=55	=55
4e	ai-
4e	-les,
8r	.
8a	les
2a	voi-
4fn}	-les,}
=56	=56
8r	.
{8e	{Et
8f#	les
8g#	nav-
8g#	-ir-
8g#	-es
8gn	et
8f#	les
4.f#	an-
8e}	-ges,}
=57	=57
8r	.
{8b-	{Ils
4b-	ont
4b-	pri-
2.bn}	-e/,}
=58	=58
{4cc#	{les
4cc#	en-
4cc#	-fants
[2.dd	fre^-
=59	=59
2dd]	|
4dd}	-les,}
4r	.
{2a	{Dans
=60	=60
4a	une
4a	i-
4a	-gno-
2a	-ran-
4cc#	-ce
=61	=61
[2.cc#	blan-
2cc#]	|
4ee	|
=62	=62
[1.ee	-che.
=63	=63
2.ee_	|
8ee]}	|}
8r	.
4r	.
4r	.
==	==
*-	*-
